file/puma.svg

<svg clip-rule="evenodd" fill-rule="evenodd" stroke-linejoin="round" stroke-miterlimit="1.41421" viewBox="0 0 560 400" xmlns="http://www.w3.org/2000/svg"><path d="m52.127 236.248h-22.729v-82.828h45.846c4.104 0 7.31 3.335 7.31 7.46v47.088c-.001 4.137-3.332 7.467-7.454 7.467h-22.973zm60.885-82.828-.009 69.001c0 2.112 1.769 3.819 3.852 3.868 2.093-.049 3.863-1.756 3.862-3.868l.018-69.001h22.721v76.057c0 3.732-2.985 6.771-6.716 6.771h-39.745c-3.706 0-6.727-3.04-6.727-6.771v-76.057zm152.227 82.826h-22.718v-75.398c0-4.113 3.315-7.428 7.395-7.428h38.376c4.086 0 7.397 3.313 7.397 7.428v75.398h-22.722v-20.795h-7.728zm-37.827-82.826c4.07 0 7.398 3.315 7.398 7.428v75.398h-22.766v-69.163c-.015-2.117-1.754-3.798-3.854-3.798-2.122 0-3.826 1.639-3.855 3.74v69.221h-22.666v-69.221c-.047-2.099-1.754-3.74-3.876-3.74-2.118 0-3.833 1.681-3.847 3.798v69.163h-22.765v-75.398c0-4.115 3.317-7.428 7.395-7.428zm45.555 51.773v-38.139c-.056-2.107-1.751-3.729-3.873-3.729-2.101 0-3.832 1.687-3.854 3.789v38.076zm-216.978-41.905h-3.862v41.893h3.861c2.006 0 3.868-1.595 3.85-3.891v-34.062h.002c.018-2.302-1.858-3.94-3.851-3.94zm158.242-96.952c-1.122.165-2.2 4.298-4.369 6.453-1.585 1.551-3.565 1.458-4.616 3.378-.399.714-.271 1.941-.722 3.113-.888 2.354-4.002 2.563-4.002 5.125-.01 2.767 2.595 3.294 4.857 5.261 1.765 1.578 1.935 2.667 4.07 3.436 1.826.617 4.54-1.408 6.983-.679 2.003.595 3.923 1.025 4.378 3.085.399 1.902-.029 4.843-2.462 4.503-.819-.094-4.377-1.288-8.74-.823-5.273.6-11.285 2.318-11.873 8.196-.325 3.28 3.739 7.153 7.662 6.366 2.71-.53 1.429-3.731 2.901-5.283 1.938-1.993 12.911 6.947 23.106 6.947 4.294 0 7.488-1.086 10.659-4.407.296-.255.658-.797 1.115-.833.434.036 1.188.461 1.438.642 8.209 6.601 14.421 19.846 44.608 19.998 4.247.024 9.08 2.053 13.032 5.654 3.521 3.255 5.578 8.326 7.582 13.464 3.023 7.712 8.434 15.214 16.644 23.563.447.447 7.207 5.701 7.749 6.093.082.06.58 1.243.407 1.903-.199 5.01-.929 19.564 9.924 20.225 2.652.134 1.96-1.73 1.96-3.014-.007-2.535-.47-5.056.866-7.653 1.826-3.569-3.876-5.211-3.71-12.931.118-5.756-4.718-4.774-7.168-9.16-1.414-2.54-2.671-3.885-2.58-6.993.553-17.484-3.722-28.975-5.851-31.797-1.663-2.129-3.039-2.974-1.52-3.958 9.059-5.987 11.111-11.549 11.111-11.549 4.817-11.321 9.147-21.661 15.12-26.214 1.202-.942 4.288-3.245 6.18-4.147 5.574-2.627 8.506-4.222 10.127-5.796 2.559-2.493 4.586-7.7 2.129-10.854-3.055-3.895-8.333-.805-10.66.577-16.651 9.881-19.104 27.312-24.873 37.322-4.602 7.998-12.082 13.873-18.772 14.353-5.01.372-10.42-.643-15.8-3.006-13.09-5.738-20.249-13.147-21.945-14.457-3.515-2.714-30.813-29.516-52.935-30.61 0 0-2.746-5.5-3.437-5.586-1.616-.21-3.273 3.28-4.46 3.688-1.11.367-2.986-3.779-4.113-3.595z" fill="#e63129" fill-rule="nonzero" transform="matrix(1.04975 0 0 1.04975 69.1394 41.4869)"/></svg>

<?xml version="1.0" encoding="UTF-8" standalone="no"?>
<!DOCTYPE svg PUBLIC "-//W3C//DTD SVG 1.1//EN" "http://www.w3.org/Graphics/SVG/1.1/DTD/svg11.dtd">
<svg width="100%" height="100%" viewBox="0 0 560 400" version="1.1" xmlns="http://www.w3.org/2000/svg" xmlns:xlink="http://www.w3.org/1999/xlink" xml:space="preserve" xmlns:serif="http://www.serif.com/" style="fill-rule:evenodd;clip-rule:evenodd;stroke-linejoin:round;stroke-miterlimit:1.41421;">
    <g id="animal" transform="matrix(1.04975,0,0,1.04975,69.1394,41.4869)">
        <path d="M52.127,236.248L29.398,236.248L29.398,153.42L75.244,153.42C79.348,153.42 82.554,156.755 82.554,160.88L82.554,207.968C82.553,212.105 79.222,215.435 75.1,215.435L52.127,215.435L52.127,236.248ZM113.012,153.42L113.003,222.421C113.003,224.533 114.772,226.24 116.855,226.289C118.948,226.24 120.718,224.533 120.717,222.421L120.735,153.42L143.456,153.42L143.456,229.477C143.456,233.209 140.471,236.248 136.74,236.248L96.995,236.248C93.289,236.248 90.268,233.208 90.268,229.477L90.268,153.42L113.012,153.42ZM265.239,236.246L242.521,236.246L242.521,160.848C242.521,156.735 245.836,153.42 249.916,153.42L288.292,153.42C292.378,153.42 295.689,156.733 295.689,160.848L295.689,236.246L272.967,236.246L272.967,215.451L265.239,215.451L265.239,236.246ZM227.412,153.42C231.482,153.42 234.81,156.735 234.81,160.848L234.81,236.246L212.044,236.246L212.044,167.083C212.029,164.966 210.29,163.285 208.19,163.285C206.068,163.285 204.364,164.924 204.335,167.025L204.335,236.246L181.669,236.246L181.669,167.025C181.622,164.926 179.915,163.285 177.793,163.285C175.675,163.285 173.96,164.966 173.946,167.083L173.946,236.246L151.181,236.246L151.181,160.848C151.181,156.733 154.498,153.42 158.576,153.42L227.412,153.42ZM272.967,205.193L272.967,167.054C272.911,164.947 271.216,163.325 269.094,163.325C266.993,163.325 265.262,165.012 265.24,167.114L265.24,205.19L272.967,205.193ZM55.989,163.288L52.127,163.288L52.127,205.181L55.988,205.181C57.994,205.181 59.856,203.586 59.838,201.29L59.838,167.228L59.84,167.228C59.858,164.926 57.982,163.288 55.989,163.288ZM214.231,66.336C213.109,66.501 212.031,70.634 209.862,72.789C208.277,74.34 206.297,74.247 205.246,76.167C204.847,76.881 204.975,78.108 204.524,79.28C203.636,81.634 200.522,81.843 200.522,84.405C200.512,87.172 203.117,87.699 205.379,89.666C207.144,91.244 207.314,92.333 209.449,93.102C211.275,93.719 213.989,91.694 216.432,92.423C218.435,93.018 220.355,93.448 220.81,95.508C221.209,97.41 220.781,100.351 218.348,100.011C217.529,99.917 213.971,98.723 209.608,99.188C204.335,99.788 198.323,101.506 197.735,107.384C197.41,110.664 201.474,114.537 205.397,113.75C208.107,113.22 206.826,110.019 208.298,108.467C210.236,106.474 221.209,115.414 231.404,115.414C235.698,115.414 238.892,114.328 242.063,111.007C242.359,110.752 242.721,110.21 243.178,110.174C243.612,110.21 244.366,110.635 244.616,110.816C252.825,117.417 259.037,130.662 289.224,130.814C293.471,130.838 298.304,132.867 302.256,136.468C305.777,139.723 307.834,144.794 309.838,149.932C312.861,157.644 318.272,165.146 326.482,173.495C326.929,173.942 333.689,179.196 334.231,179.588C334.313,179.648 334.811,180.831 334.638,181.491C334.439,186.501 333.709,201.055 344.562,201.716C347.214,201.85 346.522,199.986 346.522,198.702C346.515,196.167 346.052,193.646 347.388,191.049C349.214,187.48 343.512,185.838 343.678,178.118C343.796,172.362 338.96,173.344 336.51,168.958C335.096,166.418 333.839,165.073 333.93,161.965C334.483,144.481 330.208,132.99 328.079,130.168C326.416,128.039 325.04,127.194 326.559,126.21C335.618,120.223 337.67,114.661 337.67,114.661C342.487,103.34 346.817,93 352.79,88.447C353.992,87.505 357.078,85.202 358.97,84.3C364.544,81.673 367.476,80.078 369.097,78.504C371.656,76.011 373.683,70.804 371.226,67.65C368.171,63.755 362.893,66.845 360.566,68.227C343.915,78.108 341.462,95.539 335.693,105.549C331.091,113.547 323.611,119.422 316.921,119.902C311.911,120.274 306.501,119.259 301.121,116.896C288.031,111.158 280.872,103.749 279.176,102.439C275.661,99.725 248.363,72.923 226.241,71.829C226.241,71.829 223.495,66.329 222.804,66.243C221.188,66.033 219.531,69.523 218.344,69.931C217.234,70.298 215.358,66.152 214.231,66.336Z" style="fill:rgb(230,49,41);fill-rule:nonzero;"/>
    </g>
</svg>
